dist/assets/images/logo.svg

<svg width="245" height="21" viewBox="0 0 245 21" fill="none" xmlns="http://www.w3.org/2000/svg">
<path d="M0.689706 20.5V0.619999H5.28171V16.468H14.9137V20.5H0.689706ZM24.5188 20.668C23.0441 20.668 21.7001 20.3787 20.4868 19.8C19.2735 19.2213 18.2375 18.4653 17.3788 17.532C16.5201 16.58 15.8481 15.4973 15.3628 14.284C14.8961 13.0707 14.6628 11.82 14.6628 10.532C14.6628 9.22533 14.9055 7.96533 15.3908 6.752C15.8948 5.53867 16.5855 4.47467 17.4628 3.56C18.3588 2.62667 19.4135 1.88933 20.6268 1.348C21.8401 0.787999 23.1655 0.507999 24.6028 0.507999C26.0775 0.507999 27.4215 0.797332 28.6348 1.376C29.8481 1.95467 30.8841 2.72 31.7428 3.672C32.6015 4.624 33.2641 5.70667 33.7308 6.92C34.1975 8.13333 34.4308 9.36533 34.4308 10.616C34.4308 11.9227 34.1788 13.1827 33.6748 14.396C33.1895 15.6093 32.5081 16.6827 31.6308 17.616C30.7535 18.5307 29.7081 19.268 28.4948 19.828C27.2815 20.388 25.9561 20.668 24.5188 20.668ZM19.3388 10.588C19.3388 11.3533 19.4508 12.1 19.6748 12.828C19.8988 13.5373 20.2255 14.172 20.6548 14.732C21.1028 15.292 21.6535 15.74 22.3068 16.076C22.9601 16.412 23.7068 16.58 24.5468 16.58C25.4241 16.58 26.1895 16.4027 26.8428 16.048C27.4961 15.6933 28.0375 15.236 28.4668 14.676C28.8961 14.0973 29.2135 13.4533 29.4188 12.744C29.6428 12.016 29.7548 11.2787 29.7548 10.532C29.7548 9.76667 29.6428 9.02933 29.4188 8.32C29.1948 7.592 28.8588 6.95733 28.4108 6.416C27.9628 5.856 27.4121 5.41733 26.7588 5.1C26.1241 4.764 25.3868 4.596 24.5468 4.596C23.6695 4.596 22.9041 4.77333 22.2508 5.128C21.6161 5.464 21.0748 5.912 20.6268 6.472C20.1975 7.032 19.8708 7.676 19.6468 8.404C19.4415 9.11333 19.3388 9.84133 19.3388 10.588ZM37.0842 20.5V0.619999H46.0442C46.9776 0.619999 47.8362 0.815999 48.6202 1.208C49.4229 1.6 50.1136 2.11333 50.6922 2.748C51.2709 3.38267 51.7189 4.10133 52.0362 4.904C52.3722 5.70667 52.5402 6.51867 52.5402 7.34C52.5402 7.956 52.4656 8.55333 52.3162 9.132C52.1669 9.692 51.9522 10.224 51.6722 10.728C51.3922 11.232 51.0469 11.6893 50.6362 12.1C50.2442 12.492 49.7962 12.828 49.2922 13.108L53.6602 20.5H48.4802L44.6722 14.088H41.6762V20.5H37.0842ZM41.6762 10.084H45.8762C46.4176 10.084 46.8842 9.832 47.2762 9.328C47.6682 8.80533 47.8642 8.14267 47.8642 7.34C47.8642 6.51867 47.6402 5.86533 47.1922 5.38C46.7442 4.89467 46.2589 4.652 45.7362 4.652H41.6762V10.084ZM69.8141 16.468V20.5H55.842V0.619999H69.5621V4.652H60.434V8.516H68.274V12.24H60.434V16.468H69.8141ZM88.2838 20.5V8.6L83.9718 17.252H81.5078L77.1958 8.6V20.5H72.6038V0.619999H77.5878L82.7398 11.008L87.9198 0.619999H92.8758V20.5H88.2838ZM96.6936 20.5V0.619999H101.286V20.5H96.6936ZM105.088 20.5V0.619999H113.572C114.524 0.619999 115.392 0.815999 116.176 1.208C116.979 1.6 117.66 2.11333 118.22 2.748C118.799 3.38267 119.247 4.10133 119.564 4.904C119.9 5.70667 120.068 6.51867 120.068 7.34C120.068 8.21733 119.909 9.05733 119.592 9.86C119.293 10.6627 118.864 11.3813 118.304 12.016C117.763 12.6507 117.1 13.1547 116.316 13.528C115.532 13.9013 114.664 14.088 113.712 14.088H109.68V20.5H105.088ZM109.68 10.084H113.432C113.973 10.084 114.44 9.85067 114.832 9.384C115.224 8.91733 115.42 8.236 115.42 7.34C115.42 6.87333 115.355 6.472 115.224 6.136C115.112 5.8 114.953 5.52 114.748 5.296C114.543 5.072 114.309 4.91333 114.048 4.82C113.787 4.708 113.525 4.652 113.264 4.652H109.68V10.084ZM134.461 6.444C134.405 6.36933 134.209 6.22933 133.873 6.024C133.537 5.81867 133.117 5.604 132.613 5.38C132.109 5.156 131.559 4.96 130.961 4.792C130.364 4.624 129.767 4.54 129.169 4.54C127.527 4.54 126.705 5.09067 126.705 6.192C126.705 6.528 126.789 6.808 126.957 7.032C127.144 7.256 127.405 7.46133 127.741 7.648C128.096 7.816 128.535 7.97467 129.057 8.124C129.58 8.27333 130.187 8.44133 130.877 8.628C131.829 8.88933 132.688 9.17867 133.453 9.496C134.219 9.79467 134.863 10.1773 135.385 10.644C135.927 11.092 136.337 11.6427 136.617 12.296C136.916 12.9493 137.065 13.7333 137.065 14.648C137.065 15.768 136.851 16.72 136.421 17.504C136.011 18.2693 135.46 18.8947 134.769 19.38C134.079 19.8467 133.285 20.192 132.389 20.416C131.493 20.6213 130.569 20.724 129.617 20.724C128.889 20.724 128.143 20.668 127.377 20.556C126.612 20.444 125.865 20.2853 125.137 20.08C124.409 19.856 123.7 19.5947 123.009 19.296C122.337 18.9973 121.712 18.652 121.133 18.26L123.149 14.256C123.224 14.3493 123.467 14.5267 123.877 14.788C124.288 15.0493 124.792 15.3107 125.389 15.572C126.005 15.8333 126.687 16.0667 127.433 16.272C128.18 16.4773 128.936 16.58 129.701 16.58C131.325 16.58 132.137 16.0853 132.137 15.096C132.137 14.7227 132.016 14.4147 131.773 14.172C131.531 13.9293 131.195 13.7147 130.765 13.528C130.336 13.3227 129.823 13.136 129.225 12.968C128.647 12.8 128.012 12.6133 127.321 12.408C126.407 12.128 125.613 11.8293 124.941 11.512C124.269 11.176 123.709 10.7933 123.261 10.364C122.832 9.93467 122.505 9.44 122.281 8.88C122.076 8.32 121.973 7.66667 121.973 6.92C121.973 5.87467 122.169 4.95067 122.561 4.148C122.953 3.34533 123.485 2.67333 124.157 2.132C124.829 1.572 125.604 1.152 126.481 0.871999C127.377 0.591999 128.32 0.451999 129.309 0.451999C130 0.451999 130.681 0.517332 131.353 0.647999C132.025 0.778666 132.669 0.946666 133.285 1.152C133.901 1.35733 134.471 1.59067 134.993 1.852C135.535 2.11333 136.029 2.37467 136.477 2.636L134.461 6.444ZM148.3 16.58C149.084 16.58 149.747 16.4213 150.288 16.104C150.829 15.768 151.268 15.3293 151.604 14.788C151.94 14.2467 152.173 13.6307 152.304 12.94C152.453 12.2307 152.528 11.512 152.528 10.784V0.619999H157.12V10.784C157.12 12.1653 156.943 13.4533 156.588 14.648C156.252 15.8427 155.72 16.888 154.992 17.784C154.283 18.68 153.368 19.3893 152.248 19.912C151.147 20.416 149.831 20.668 148.3 20.668C146.713 20.668 145.36 20.3973 144.24 19.856C143.12 19.3147 142.205 18.596 141.496 17.7C140.805 16.7853 140.292 15.7307 139.956 14.536C139.639 13.3413 139.48 12.0907 139.48 10.784V0.619999H144.072V10.784C144.072 11.5493 144.147 12.2773 144.296 12.968C144.445 13.6587 144.688 14.2747 145.024 14.816C145.36 15.3573 145.789 15.7867 146.312 16.104C146.853 16.4213 147.516 16.58 148.3 16.58ZM176.358 20.5V8.6L172.046 17.252H169.582L165.27 8.6V20.5H160.678V0.619999H165.662L170.814 11.008L175.994 0.619999H180.95V20.5H176.358ZM184.376 20.5V15.936H188.044V20.5H184.376Z" fill="white"/>
<path d="M196.059 9.132V20.5H191.467V0.619999H195.051L204.319 12.296V0.619999H208.911V20.5H205.215L196.059 9.132ZM226.685 16.468V20.5H212.713V0.619999H226.433V4.652H217.305V8.516H225.145V12.24H217.305V16.468H226.685ZM244.623 4.652H238.575V20.5H233.983V4.652H227.907V0.619999H244.623V4.652Z" fill="#42A9ED"/>
</svg>

<svg width="245" height="21" fill="none" xmlns="http://www.w3.org/2000/svg"><path d="M.69 20.5V.62h4.592v15.848h9.632V20.5H.69zm23.829.168c-1.475 0-2.819-.29-4.032-.868a10.05 10.05 0 01-3.108-2.268 10.79 10.79 0 01-2.016-3.248 10.366 10.366 0 01-.7-3.752c0-1.307.242-2.567.728-3.78a10.236 10.236 0 012.072-3.192 9.969 9.969 0 013.164-2.212c1.213-.56 2.539-.84 3.976-.84 1.474 0 2.819.29 4.032.868a9.835 9.835 0 013.108 2.296A10.356 10.356 0 0133.73 6.92c.466 1.213.7 2.445.7 3.696a9.76 9.76 0 01-.756 3.78 10.17 10.17 0 01-2.044 3.22 10.242 10.242 0 01-3.136 2.212c-1.213.56-2.539.84-3.976.84zm-5.18-10.08c0 .765.112 1.512.336 2.24.224.71.55 1.344.98 1.904a5.04 5.04 0 001.652 1.344c.653.336 1.4.504 2.24.504.877 0 1.642-.177 2.296-.532a5.054 5.054 0 001.624-1.372c.43-.579.747-1.223.952-1.932a7.482 7.482 0 00.336-2.212c0-.765-.112-1.503-.336-2.212a5.474 5.474 0 00-1.008-1.904A4.74 4.74 0 0026.759 5.1c-.635-.336-1.372-.504-2.212-.504-.878 0-1.643.177-2.296.532a5.134 5.134 0 00-1.624 1.344 6.084 6.084 0 00-.98 1.932 7.816 7.816 0 00-.308 2.184zM37.084 20.5V.62h8.96c.934 0 1.792.196 2.576.588a6.825 6.825 0 012.072 1.54 6.983 6.983 0 011.344 2.156c.336.803.504 1.615.504 2.436a7.14 7.14 0 01-.224 1.792 6.972 6.972 0 01-.644 1.596c-.28.504-.625.961-1.036 1.372-.392.392-.84.728-1.344 1.008L53.66 20.5h-5.18l-3.808-6.412h-2.996V20.5h-4.592zm4.592-10.416h4.2c.542 0 1.008-.252 1.4-.756.392-.523.588-1.185.588-1.988 0-.821-.224-1.475-.672-1.96-.448-.485-.933-.728-1.456-.728h-4.06v5.432zm28.138 6.384V20.5H55.842V.62h13.72v4.032h-9.128v3.864h7.84v3.724h-7.84v4.228h9.38zm18.47 4.032V8.6l-4.312 8.652h-2.464L77.196 8.6v11.9h-4.592V.62h4.984l5.152 10.388L87.92.62h4.956V20.5h-4.592zm8.41 0V.62h4.592V20.5h-4.592zm8.394 0V.62h8.484c.952 0 1.82.196 2.604.588a6.483 6.483 0 012.044 1.54 6.972 6.972 0 011.344 2.156c.336.803.504 1.615.504 2.436a6.8 6.8 0 01-.476 2.52 6.835 6.835 0 01-1.288 2.156 5.92 5.92 0 01-1.988 1.512c-.784.373-1.652.56-2.604.56h-4.032V20.5h-4.592zm4.592-10.416h3.752c.541 0 1.008-.233 1.4-.7.392-.467.588-1.148.588-2.044 0-.467-.065-.868-.196-1.204a2.305 2.305 0 00-.476-.84 1.737 1.737 0 00-.7-.476 1.976 1.976 0 00-.784-.168h-3.584v5.432zm24.781-3.64c-.056-.075-.252-.215-.588-.42a12.166 12.166 0 00-2.912-1.232 6.587 6.587 0 00-1.792-.252c-1.642 0-2.464.55-2.464 1.652 0 .336.084.616.252.84.187.224.448.43.784.616a8.7 8.7 0 001.316.476c.523.15 1.13.317 1.82.504.952.261 1.811.55 2.576.868.766.299 1.41.681 1.932 1.148.542.448.952.999 1.232 1.652.299.653.448 1.437.448 2.352 0 1.12-.214 2.072-.644 2.856a5.334 5.334 0 01-1.652 1.876 7.422 7.422 0 01-2.38 1.036 12.39 12.39 0 01-2.772.308 15.47 15.47 0 01-2.24-.168 17.684 17.684 0 01-2.24-.476 20.699 20.699 0 01-2.128-.784 12.111 12.111 0 01-1.876-1.036l2.016-4.004c.075.093.318.27.728.532.411.261.915.523 1.512.784.616.261 1.298.495 2.044.7a8.521 8.521 0 002.268.308c1.624 0 2.436-.495 2.436-1.484 0-.373-.121-.681-.364-.924-.242-.243-.578-.457-1.008-.644a9.619 9.619 0 00-1.54-.56c-.578-.168-1.213-.355-1.904-.56a17.89 17.89 0 01-2.38-.896c-.672-.336-1.232-.719-1.68-1.148a4.383 4.383 0 01-.98-1.484c-.205-.56-.308-1.213-.308-1.96 0-1.045.196-1.97.588-2.772a5.844 5.844 0 011.596-2.016 6.838 6.838 0 012.324-1.26 9.428 9.428 0 012.828-.42c.691 0 1.372.065 2.044.196.672.13 1.316.299 1.932.504.616.205 1.186.439 1.708.7.542.261 1.036.523 1.484.784l-2.016 3.808zM148.3 16.58c.784 0 1.447-.159 1.988-.476.541-.336.98-.775 1.316-1.316a5.364 5.364 0 00.7-1.848c.149-.71.224-1.428.224-2.156V.62h4.592v10.164c0 1.381-.177 2.67-.532 3.864-.336 1.195-.868 2.24-1.596 3.136-.709.896-1.624 1.605-2.744 2.128-1.101.504-2.417.756-3.948.756-1.587 0-2.94-.27-4.06-.812-1.12-.541-2.035-1.26-2.744-2.156-.691-.915-1.204-1.97-1.54-3.164a14.57 14.57 0 01-.476-3.752V.62h4.592v10.164c0 .765.075 1.493.224 2.184.149.69.392 1.307.728 1.848.336.541.765.97 1.288 1.288.541.317 1.204.476 1.988.476zm28.058 3.92V8.6l-4.312 8.652h-2.464L165.27 8.6v11.9h-4.592V.62h4.984l5.152 10.388L175.994.62h4.956V20.5h-4.592zm8.018 0v-4.564h3.668V20.5h-3.668z" fill="#fff"/><path d="M196.059 9.132V20.5h-4.592V.62h3.584l9.268 11.676V.62h4.592V20.5h-3.696l-9.156-11.368zm30.626 7.336V20.5h-13.972V.62h13.72v4.032h-9.128v3.864h7.84v3.724h-7.84v4.228h9.38zm17.938-11.816h-6.048V20.5h-4.592V4.652h-6.076V.62h16.716v4.032z" fill="#42A9ED"/></svg>
